X: 28953
T: Nancy Finlayson
R: waltz
M: 3/4
K: Gmajor
D2|:(G3 d) ((3BAG)|(Bd3) (g>a)|g4 (f>g)|(e3 d) ((3efg)|
d4 (c>d)|B4 (A>G)|A3 (Bc>d)|(A3d) ((3BAG)|
(G3d) ((3BAG)|(Bd3) (g>a)|g4 (f>g)|(e3 d) ((3efg)|
d4 (c>d)|B3 (BA>G)|(EG3) (G>A)|1 G4:|2 G3 (GF>E)||
D3 (DF>A)|c4 ((3BAG)|(G3 D) (G>B)|d4 ((3def)|
g3 (gf>e)|(dB2) (Bc>B)|A3 (Bc>d)|A3 (GF>E)|
D3 (DF>A)|c4 ((3BAG)|G3 (DG>B)|d4 ((3def)|
g3 (gf>e)|(dB2) (BA>G)|(EG3) (G>A)|1 G3 (GF>E):|2 G3G2||

